X:1
T:Tequila
N: Lower transposed
M:4/4
Q:1/4=120
L:1/8
K:Fmaj
|:"F".F2.F2 "Cm7"_E2zF-|"F"F.F2F "Cm7"_EE E2|"F".F2.F2 "Cm7"_E2zF-|"F"F"Cm7"_E2E EEEC:|
|:"F".F2F_E "Cm7"G2EF-|"F"F C2z "Cm7"z2z C|"F".F2F_E "Cm7"GE2F-|F2"Cm"z2z2zC|
"F"F2F_E "Cm7"G E2F-|"F"FC2z "Cm7"z2zC|"F"F2F_E "Cm7"GE2F-|"F"F2z2z"Cm7"CDF|
"F°7"_A4-A3F-|"F"F2z2zCDF|"F°7"_A4-A3F-|F2z2"Cm7"zCDF|
"F°7"_A4-A3F-|"F"F2z2z4|"G"GGGG G2 G2|.C2z2"C7"z4:|

